svg/azure-route-table.svg

<?xml version="1.0" encoding="UTF-8"?>
<svg xmlns="http://www.w3.org/2000/svg" xmlns:xlink="http://www.w3.org/1999/xlink" width="32" height="32" viewBox="0 0 32 32">
<defs>
<filter id="filter-remove-color" x="0%" y="0%" width="100%" height="100%">
<feColorMatrix color-interpolation-filters="sRGB" values="0 0 0 0 1 0 0 0 0 1 0 0 0 0 1 0 0 0 1 0" />
</filter>
<linearGradient id="linear-pattern-0" gradientUnits="userSpaceOnUse" x1="10.56" y1="7.77" x2="10.56" y2="19.24" gradientTransform="matrix(1.777778, 0.00266842, -0.00266842, 1.777778, 0, 0)">
<stop offset="0.22" stop-color="rgb(19.607843%, 83.137256%, 96.078432%)" stop-opacity="1"/>
<stop offset="1" stop-color="rgb(9.803922%, 54.11765%, 70.19608%)" stop-opacity="1"/>
</linearGradient>
<image id="source-14" x="0" y="0" width="32" height="32" xlink:href="data:image/png;base64,iVBORw0KGgoAAAANSUhEUgAAACAAAAAgCAYAAABzenr0AAAABmJLR0QA/wD/AP+gvaeTAAAAkUlEQVRYhe3UMQrCQBBA0RcVbAwiCB5CPJlXVW/gHUSxjLFwbcIGhU20mVcO7PCbWUIIIYTwZ1XB2xo7zDN7Wtxw+LRkVhCwwR7rTECDM44pZpSAKZZY9QTUaT5awFuVCcjNsiYDBBSJgAgY4gpyZ9b2zAcNaHBJO7on98D1m4iSr3iBrddX3NXijlPB/hB+4wm+FhRuaVgeBgAAAABJRU5ErkJggg=="/>
<mask id="mask-0">
<g filter="url(#filter-remove-color)">
<use xlink:href="#source-14"/>
</g>
</mask>
<clipPath id="clip-0">
<rect x="0" y="0" width="32" height="32"/>
</clipPath>
<g id="source-13" clip-path="url(#clip-0)">
<path fill-rule="nonzero" fill="rgb(100%, 100%, 100%)" fill-opacity="1" d="M 18.792969 17.261719 C 17.46875 17.269531 16.171875 16.894531 15.058594 16.179688 L 18.753906 25.8125 L 22.417969 16.230469 C 21.332031 16.910156 20.074219 17.265625 18.792969 17.261719 "/>
</g>
<clipPath id="clip-1">
<rect x="0" y="0" width="32" height="32"/>
</clipPath>
<g id="source-16" clip-path="url(#clip-1)">
<g mask="url(#mask-0)">
<use xlink:href="#source-13"/>
</g>
</g>
<linearGradient id="linear-pattern-1" gradientUnits="userSpaceOnUse" x1="10.23" y1="1.63" x2="11.07" y2="12.04" gradientTransform="matrix(1.777778, 0.00266842, -0.00266842, 1.777778, 0, 0)">
<stop offset="0.22" stop-color="rgb(19.607843%, 83.137256%, 96.078432%)" stop-opacity="1"/>
<stop offset="1" stop-color="rgb(9.803922%, 54.11765%, 70.19608%)" stop-opacity="1"/>
</linearGradient>
</defs>
<path fill-rule="nonzero" fill="url(#linear-pattern-0)" d="M 28.851562 30.523438 C 30.027344 30.542969 31 29.617188 31.039062 28.445312 L 31.039062 28.089844 C 30.167969 21.226562 26.257812 15.644531 18.792969 15.644531 C 11.324219 15.644531 7.269531 20.375 6.507812 28.089844 C 6.382812 29.296875 7.257812 30.375 8.460938 30.507812 L 28.851562 30.507812 Z M 28.851562 30.523438 "/>
<use xlink:href="#source-16"/>
<path fill-rule="nonzero" fill="url(#linear-pattern-1)" d="M 18.792969 3.503906 C 16.308594 3.460938 13.992188 4.761719 12.738281 6.910156 C 11.480469 9.054688 11.480469 11.710938 12.738281 13.855469 C 13.992188 16.003906 16.308594 17.304688 18.792969 17.261719 C 22.546875 17.199219 25.554688 14.136719 25.554688 10.382812 C 25.554688 6.628906 22.546875 3.566406 18.792969 3.503906 "/>
<path fill-rule="nonzero" fill="rgb(0%, 47.058824%, 83.137256%)" fill-opacity="1" d="M 10.667969 10.453125 L 10.667969 1.777344 C 10.671875 1.699219 10.644531 1.621094 10.589844 1.566406 C 10.535156 1.507812 10.460938 1.476562 10.382812 1.476562 L 8.125 1.476562 C 8.042969 1.46875 7.957031 1.5 7.898438 1.558594 C 7.839844 1.617188 7.804688 1.695312 7.804688 1.777344 L 7.804688 10.152344 C 7.796875 10.3125 7.664062 10.441406 7.503906 10.453125 L 5.511719 10.453125 C 5.40625 10.4375 5.332031 10.34375 5.332031 10.238281 L 5.332031 7.910156 C 5.335938 7.828125 5.289062 7.753906 5.214844 7.722656 C 5.140625 7.691406 5.050781 7.710938 4.996094 7.769531 L 1.050781 11.679688 C 0.988281 11.734375 0.953125 11.8125 0.953125 11.894531 C 0.953125 11.976562 0.988281 12.050781 1.050781 12.105469 L 4.960938 16 C 4.980469 16.070312 5.035156 16.121094 5.105469 16.136719 C 5.175781 16.152344 5.25 16.128906 5.296875 16.074219 C 5.34375 16.019531 5.359375 15.941406 5.332031 15.875 L 5.332031 13.527344 C 5.332031 13.425781 5.410156 13.34375 5.511719 13.332031 L 10.382812 13.332031 C 10.539062 13.324219 10.667969 13.191406 10.667969 13.03125 Z M 10.667969 10.453125 "/>
</svg>

<svg role="img" viewBox="0 0 32 32" xmlns="http://www.w3.org/2000/svg"><defs><linearGradient gradientTransform="rotate(.086)scale(1.77778)" gradientUnits="userSpaceOnUse" id="azure-route-table_svg__g" x1="10.56" x2="10.56" y1="7.77" y2="19.24"><stop offset=".22" stop-color="rgb(19.607843%, 83.137256%, 96.078432%)"/><stop offset="1" stop-color="rgb(9.803922%, 54.11765%, 70.19608%)"/></linearGradient><linearGradient gradientTransform="rotate(.086)scale(1.77778)" gradientUnits="userSpaceOnUse" id="azure-route-table_svg__i" x1="10.23" x2="11.07" y1="1.63" y2="12.04"><stop offset=".22" stop-color="rgb(19.607843%, 83.137256%, 96.078432%)"/><stop offset="1" stop-color="rgb(9.803922%, 54.11765%, 70.19608%)"/></linearGradient><clipPath id="azure-route-table_svg__a"><path d="M0 0h32v32H0z"/></clipPath><clipPath id="azure-route-table_svg__b"><path d="M0 0h32v32H0z"/></clipPath><g clip-path="url(#azure-route-table_svg__a)" id="azure-route-table_svg__d"><path d="M18.793 17.262a6.83 6.83 0 0 1-3.734-1.082l3.695 9.633 3.664-9.583a6.8 6.8 0 0 1-3.625 1.032" fill="rgb(100%, 100%, 100%)"/></g><g clip-path="url(#azure-route-table_svg__b)" id="azure-route-table_svg__h" mask="url(#azure-route-table_svg__c)"><use href="#azure-route-table_svg__d"/></g><filter height="100%" id="azure-route-table_svg__e" width="100%" x="0%" y="0%"><feColorMatrix color-interpolation-filters="sRGB" values="0 0 0 0 1 0 0 0 0 1 0 0 0 0 1 0 0 0 1 0"/></filter><image height="32" href="data:image/png;base64,iVBORw0KGgoAAAANSUhEUgAAACAAAAAgCAYAAABzenr0AAAABmJLR0QA/wD/AP+gvaeTAAAAkUlEQVRYhe3UMQrCQBBA0RcVbAwiCB5CPJlXVW/gHUSxjLFwbcIGhU20mVcO7PCbWUIIIYTwZ1XB2xo7zDN7Wtxw+LRkVhCwwR7rTECDM44pZpSAKZZY9QTUaT5awFuVCcjNsiYDBBSJgAgY4gpyZ9b2zAcNaHBJO7on98D1m4iSr3iBrddX3NXijlPB/hB+4wm+FhRuaVgeBgAAAABJRU5ErkJggg==" id="azure-route-table_svg__f" width="32" x="0" y="0"/><mask id="azure-route-table_svg__c"><g filter="url(#azure-route-table_svg__e)"><use href="#azure-route-table_svg__f"/></g></mask></defs><path d="M28.852 30.523a2.15 2.15 0 0 0 2.187-2.078v-.355c-.871-6.863-4.781-12.445-12.246-12.445-7.469 0-11.523 4.73-12.285 12.445a2.206 2.206 0 0 0 1.953 2.418h20.39Zm0 0" fill="url(#azure-route-table_svg__g)"/><use href="#azure-route-table_svg__h"/><path d="M18.793 3.504a6.87 6.87 0 0 0-6.055 3.406 6.86 6.86 0 0 0 0 6.945 6.878 6.878 0 0 0 12.816-3.473 6.88 6.88 0 0 0-6.761-6.878" fill="url(#azure-route-table_svg__i)"/><path d="M10.668 10.453V1.777a.28.28 0 0 0-.078-.21.28.28 0 0 0-.207-.09H8.125a.3.3 0 0 0-.227.082.3.3 0 0 0-.093.218v8.375a.323.323 0 0 1-.301.301H5.512a.215.215 0 0 1-.18-.215V7.91a.19.19 0 0 0-.117-.187.2.2 0 0 0-.219.047l-3.945 3.91a.28.28 0 0 0-.098.215c0 .082.035.156.098.21L4.96 16a.196.196 0 1 0 .371-.125v-2.348c0-.101.078-.183.18-.195h4.87a.303.303 0 0 0 .286-.3Zm0 0" fill="rgb(0%, 47.058824%, 83.137256%)"/></svg>
